X: 37
T:Ice House Schottische No. 1
M:4/4
L:1/16
C:Nigel Eaton
R:Schottische
Z:Steve Mansfield
K:C
efg2 efg2 | gcde fedc | e4 f3d | dcd2 e2c2 :|
|: cgfd c2c_B | c2c_B cd_ef| ggfd c2cg| fdc_B c2c2:|

